google-classroom.svg

<svg fill="currentColor" viewBox="0 0 24 24"><path d="M23 2H1a1 1 0 0 0-1 1v18a1 1 0 0 0 1 1h22a1 1 0 0 0 1-1V3a1 1 0 0 0-1-1m-1 18h-2v-1h-5v1H2V4h20zM10.29 9.71A1.71 1.71 0 0 1 12 8c.95 0 1.71.77 1.71 1.71 0 .95-.76 1.72-1.71 1.72s-1.71-.77-1.71-1.72m-4.58 1.58c0-.71.58-1.29 1.29-1.29a1.29 1.29 0 0 1 1.29 1.29c0 .71-.58 1.28-1.29 1.28S5.71 12 5.71 11.29m10 0A1.29 1.29 0 0 1 17 10a1.29 1.29 0 0 1 1.29 1.29c0 .71-.58 1.28-1.29 1.28s-1.29-.57-1.29-1.28M20 15.14V16H4v-.86c0-.94 1.55-1.71 3-1.71.55 0 1.11.11 1.6.3.75-.69 2.1-1.16 3.4-1.16s2.65.47 3.4 1.16c.49-.19 1.05-.3 1.6-.3 1.45 0 3 .77 3 1.71"/></svg>

<svg  viewBox="0 0 24 24" fill="currentColor"><path  d="M23,2H1A1,1 0 0,0 0,3V21A1,1 0 0,0 1,22H23A1,1 0 0,0 24,21V3A1,1 0 0,0 23,2M22,20H20V19H15V20H2V4H22V20M10.29,9.71A1.71,1.71 0 0,1 12,8C12.95,8 13.71,8.77 13.71,9.71C13.71,10.66 12.95,11.43 12,11.43C11.05,11.43 10.29,10.66 10.29,9.71M5.71,11.29C5.71,10.58 6.29,10 7,10A1.29,1.29 0 0,1 8.29,11.29C8.29,12 7.71,12.57 7,12.57C6.29,12.57 5.71,12 5.71,11.29M15.71,11.29A1.29,1.29 0 0,1 17,10A1.29,1.29 0 0,1 18.29,11.29C18.29,12 17.71,12.57 17,12.57C16.29,12.57 15.71,12 15.71,11.29M20,15.14V16H16L14,16H10L8,16H4V15.14C4,14.2 5.55,13.43 7,13.43C7.55,13.43 8.11,13.54 8.6,13.73C9.35,13.04 10.7,12.57 12,12.57C13.3,12.57 14.65,13.04 15.4,13.73C15.89,13.54 16.45,13.43 17,13.43C18.45,13.43 20,14.2 20,15.14Z"/></svg>
